!!!!SEGMENT: pl-cz--iii-456--002_kuci-mateusz--symfonia-d-andante.krn
!!!cenid: 17xx:230
!!!COM: Kuci, Mateusz
!!!COM-rismid: pe30017582
!!!CDT:
!!!CNT:
!!!OPR: Symfonia D
!!!OTL: Andante
!!!OMV: 002
!!!PDT:
!!!AGN: Secular
!!!SMS-siglum: PL-CZ
!!!SMS-shelfmark: III-456
!!!SMS-shelfwork: 001-002 M
!!!NIFC-rismid:
!!!URL-scan: http://repozytorium.nifc.pl/skany/pl-cz-nut--iii-456
!!!ONB-nifc:
!!!key:
**kern	**dynam	**kern	**dynam	**kern	**dynam	**kern	**dynam	**kern	**kern	**kern	**kern	**dynam
*part8	*part8	*part7	*part7	*part6	*part6	*part5	*part5	*part4	*part3	*part2	*part1	*part1
*group3	*	*group3	*	*group3	*	*group3	*	*group2	*group2	*group1	*group1	*
*staff8	*	*staff7	*	*staff6	*	*staff5	*	*staff4	*staff3	*staff2	*staff1	*
*Iempty	*	*Iviola	*	*Ivioln	*	*Ivioln	*	*Iempty	*Iempty	*Ioboe	*Ioboe	*
*I"Baſso	*	*I"Viola	*	*I"Violino Secondo	*	*I"Violino Primo	*	*I"Cornu Secondo	*I"Cornu Primo	*I"Oboe Secondo	*I"Oboe Primo	*
*I'B	*	*I'Vla	*	*I'Vn II	*	*I'Vn I	*	*I'Cor II	*I'Cor I	*I'Ob II	*I'Ob I	*
*clefF4	*	*clefC3	*	*clefG2	*	*clefG2	*	*clefG2	*clefG2	*clefG2	*clefG2	*
*	*	*	*	*	*	*	*	*ITrd-1c-2	*ITrd-1c-2	*	*	*
*k[f#]	*	*k[f#]	*	*k[f#]	*	*k[f#]	*	*k[f#]	*k[f#]	*k[f#]	*k[f#]	*
*G:	*	*G:	*	*G:	*	*G:	*	*	*	*G:	*G:	*
*M2/4	*	*M2/4	*	*M2/4	*	*M2/4	*	*M2/4	*M2/4	*M2/4	*M2/4	*
=1	=1	=1	=1	=1	=1	=1	=1	=1	=1	=1	=1	=1
!	!	!	!	!	!	!	!	!	!	!	!LO:TX:a:t=25	!
!LO:TX:a:B:t=Andante poco Adagio	!	!	!	!	!	!LO:TX:a:B:t=Andante poco Adagio	!	!	!	!	!LO:N:vis=00	!
!	!LO:DY:t=p:	!LO:TX:a:B:t=Andante poco Adagio	!	!LO:TX:a:B:t=Andante poco Adagio	!	!LO:TUP:a	!	!LO:TX:a:B:t=Adagio Tace	!LO:TX:a:B:t=Adagio Tace	!LO:TX:a:B:t=Adagio Tace	!LO:TX:a:B:t=Andante poco Adagio	!
(2GG/	p	4r	.	4r	.	(24dd\LL	pp	2ryy	2ryy	2ryy	0r	.
.	.	.	.	.	.	24cc\	.	.	.	.	.	.
.	.	.	.	.	.	24b\JJ)	.	.	.	.	.	.
.	.	.	.	.	.	16b`\LL	.	.	.	.	.	.
.	.	.	.	.	.	16b`\JJ	.	.	.	.	.	.
!	!	!LO:TUP:a	!LO:DY:t=p	!LO:TUP:a	!LO:DY:t=p:	!	!	!	!	!	!	!
.	.	(24g\LL	p	(24b\LL	p	8b`\	.	.	.	.	.	.
.	.	24a\	.	24cc\	.	.	.	.	.	.	.	.
.	.	24b\JJ)	.	24dd\JJ)	.	.	.	.	.	.	.	.
.	.	16b\LL	.	16dd`\LL	.	8r	.	.	.	.	.	.
.	.	16b\JJ	.	16dd`\JJ	.	.	.	.	.	.	.	.
=2	=2	=2	=2	=2	=2	=2	=2	=2	=2	=2	=2	=2
*2\right	*	*	*	*	*	*	*	*	*	*	*	*
!	!	!	!	!	!	!LO:TUP:b	!	!	!	!	!	!
2G\)	.	4r	.	4r	.	(24b/LL	.	2ryy	2ryy	2ryy	.	.
.	.	.	.	.	.	24a/	.	.	.	.	.	.
.	.	.	.	.	.	24g/JJ)	.	.	.	.	.	.
.	.	.	.	.	.	16g'/LL	.	.	.	.	.	.
.	.	.	.	.	.	16g'/JJ	.	.	.	.	.	.
!	!	!LO:TUP:b	!	!LO:TUP:b	!	!	!	!	!	!	!	!
.	.	(24B/LL	.	(24d/LL	.	8g/	.	.	.	.	.	.
.	.	24A/	.	24c/	.	.	.	.	.	.	.	.
.	.	24G/JJ)	.	24B/JJ)	.	.	.	.	.	.	.	.
.	.	16G/LL	.	16B`/LL	.	8r	.	.	.	.	.	.
.	.	16G/JJ	.	16B`/JJ	.	.	.	.	.	.	.	.
=3	=3	=3	=3	=3	=3	=3	=3	=3	=3	=3	=3	=3
!	!	!	!	!	!	!LO:TUP:a	!	!	!	!	!	!
2D\	.	4r	.	4r	.	(24cc\LL	.	2ryy	2ryy	2ryy	.	.
.	.	.	.	.	.	24b\	.	.	.	.	.	.
.	.	.	.	.	.	24a\JJ)	.	.	.	.	.	.
.	.	.	.	.	.	16a/LL	.	.	.	.	.	.
.	.	.	.	.	.	16a/JJ	.	.	.	.	.	.
!	!	!LO:TUP:a	!	!LO:TUP:b	!	!	!	!	!	!	!	!
.	.	(24f#X\LL	.	(24a/LL	.	8a/	.	.	.	.	.	.
.	.	24g\	.	24b/	.	.	.	.	.	.	.	.
.	.	24a\JJ)	.	24cc/JJ)	.	.	.	.	.	.	.	.
.	.	16a\LL	.	16cc/LL	.	8r	.	.	.	.	.	.
.	.	16a\JJ	.	16cc/JJ	.	.	.	.	.	.	.	.
=4	=4	=4	=4	=4	=4	=4	=4	=4	=4	=4	=4	=4
*tremolo	*	*Xtuplet	*	*	*	*Xtuplet	*	*	*	*	*	*
!LO:TX:a:t=h	!	!	!	!	!	!	!	!	!	!	!	!
8B\L	.	4r	.	4r	.	24a/LL	.	2ryy	2ryy	2ryy	.	.
.	.	.	.	.	.	24g/	.	.	.	.	.	.
.	.	.	.	.	.	24f#/JJ	.	.	.	.	.	.
*	*	*	*	*	*	*	*	*	*	*	*	*
8B\	.	.	.	.	.	16f#/LL	.	.	.	.	.	.
.	.	.	.	.	.	16f#/JJ	.	.	.	.	.	.
!	!	!	!	!LO:TUP:b	!	!	!	!	!	!	!	!
8B\	.	24A/LL	.	(24c/LL	.	8f#/	.	.	.	.	.	.
.	.	24G/	.	24B/	.	.	.	.	.	.	.	.
.	.	24F#/JJ	.	24A/JJ)	.	.	.	.	.	.	.	.
8B\J	.	16F#/LL	.	16A`/LL	.	8r	.	.	.	.	.	.
.	.	16F#/JJ	.	16A`/JJ	.	.	.	.	.	.	.	.
=5	=5	=5	=5	=5	=5	=5	=5	=5	=5	=5	=5	=5
! przez 4 takty	!	!	!	!	!	!	!	!	!	!	!LO:N:vis=00	!
8G\L	.	4G/	.	4B/	.	4g/	<	2ryy	2ryy	2ryy	0r	.
8G\	.	.	.	.	.	.	.	.	.	.	.	.
8G\	.	8A/L	.	8c/L	.	16a/LL	.	.	.	.	.	.
.	.	.	.	.	.	16g/	.	.	.	.	.	.
8G\J	.	8B/J	.	8d/J	.	16f#/	.	.	.	.	.	.
.	.	.	.	.	.	16g/JJ	.	.	.	.	.	.
!	!	!	!	!	!	!LO:LB:g=original	!	!	!	!	!	!
=6	=6	=6	=6	=6	=6	=6	=6	=6	=6	=6	=6	=6
*	*	*2\right	*	*	*	*	*	*	*	*	*	*
!	!	!LO:TX:a:t=t	!	!	!	!	!	!	!	!	!	!
8G\L	.	2c\	.	(4e/	.	8cc\	.	2ryy	2ryy	2ryy	.	.
8G\	.	.	.	.	.	4cc\	.	.	.	.	.	.
8G\	.	.	.	4f#X/)	.	.	.	.	.	.	.	.
8G\J	.	.	.	.	.	8cc\	.	.	.	.	.	.
=7	=7	=7	=7	=7	=7	=7	=7	=7	=7	=7	=7	=7
8G\L	.	4B/	.	4g/	.	4b\	.	2ryy	2ryy	2ryy	.	.
8G\	.	.	.	.	.	.	.	.	.	.	.	.
8G\	.	16c/LL	.	16a/LL	.	16cc\LL	.	.	.	.	.	.
.	.	16B/	.	16g/	.	16b\	.	.	.	.	.	.
8G\J	.	16c/	.	16a/	.	16a\	.	.	.	.	.	.
.	.	16d/JJ	.	16b/JJ	.	16b\JJ	.	.	.	.	.	.
!	!	!	!	!LO:LB:g=original	!	!	!	!	!	!	!	!
=8	=8	=8	=8	=8	=8	=8	=8	=8	=8	=8	=8	=8
*	*	*	*	*2\right	*	*	*	*	*	*	*	*
8G\L	.	(8e\L	.	(2cc\	.	8ee\	.	2ryy	2ryy	2ryy	.	.
8G\	.	8g'\	.	.	.	4ee\	.	.	.	.	.	.
8G\	.	8g'\	.	.	.	.	.	.	.	.	.	.
8G\J	.	8g'\J)	.	.	.	8ee\	.	.	.	.	.	.
!	!	!LO:LB:g=original	!	!	!	!	!	!	!	!	!	!
*Xtremolo	*	*	*	*	*	*	*	*	*	*	*	*
=9	=9	=9	=9	=9	=9	=9	=9	=9	=9	=9	=9	=9
!LO:TX:t=P:problem:mixed beam	!	!	!	!	!	!	!	!	!	!	!LO:N:vis=00	!
8G\L	.	2g\	.	4cc\	.	8.dd\L	f	2ryy	2ryy	2ryy	0r	.
8GG/J	.	.	.	.	.	.	.	.	.	.	.	.
.	.	.	.	.	.	(32ee\LL	.	.	.	.	.	.
.	.	.	.	.	.	32ff#\JJJ)	.	.	.	.	.	.
4r	.	.	.	4b\)	.	16gg\LL	.	.	.	.	.	.
.	.	.	.	.	.	16ff#\	.	.	.	.	.	.
.	.	.	.	.	.	16ee\	.	.	.	.	.	.
.	.	.	.	.	.	16dd\JJ	.	.	.	.	.	.
=10	=10	=10	=10	=10	=10	=10	=10	=10	=10	=10	=10	=10
.	.	.	.	8qqe/	.	.	.	.	.	.	.	.
!LO:N:vis=8.	!	!	!	!	!	!	!	!	!	!	!	!
8E\L	.	(2e\	.	[2a/	.	(16dd\LL	.	2ryy	2ryy	2ryy	.	.
.	.	.	.	.	.	16cc#X\JJ	.	.	.	.	.	.
(16F#\L	.	.	.	.	.	4.cc#\)	.	.	.	.	.	.
16G\JJ)	.	.	.	.	.	.	.	.	.	.	.	.
8A\L	.	.	.	.	.	.	.	.	.	.	.	.
8G\J	.	.	.	.	.	.	.	.	.	.	.	.
=11	=11	=11	=11	=11	=11	=11	=11	=11	=11	=11	=11	=11
(2F#X\	.	(2d\)	.	2a/_	.	8.ccn\L	.	2ryy	2ryy	2ryy	.	.
.	.	.	.	.	.	32dd\LL	.	.	.	.	.	.
.	.	.	.	.	.	32ee\JJJ	.	.	.	.	.	.
.	.	.	.	.	.	16ff#\LL	.	.	.	.	.	.
.	.	.	.	.	.	16gg\	.	.	.	.	.	.
.	.	.	.	.	.	16aa\	.	.	.	.	.	.
.	.	.	.	.	.	16ccn\JJ	.	.	.	.	.	.
=12	=12	=12	=12	=12	=12	=12	=12	=12	=12	=12	=12	=12
2G\)	.	4d\)	.	16a/LL]	.	(16cc\LL	.	2ryy	2ryy	2ryy	.	.
.	.	.	.	16g/	.	16b\JJ	.	.	.	.	.	.
.	.	.	.	16g/	.	4.b\)	.	.	.	.	.	.
.	.	.	.	16g/JJ	.	.	.	.	.	.	.	.
.	.	4g\	.	16d/LL	.	.	.	.	.	.	.	.
.	.	.	.	16d/	.	.	.	.	.	.	.	.
.	.	.	.	16d/	.	.	.	.	.	.	.	.
.	.	.	.	16d/JJ	.	.	.	.	.	.	.	.
!LO:LB:g=original	!	!	!	!	!	!LO:LB:g=original	!	!	!	!	!	!
=13	=13	=13	=13	=13	=13	=13	=13	=13	=13	=13	=13	=13
!	!	!	!	!	!	!LO:TX:t=P:problem:mixed beam	!	!	!	!	!LO:N:vis=00	!
4C/	.	4e\	.	(2e/	.	(16e/LL	.	2ryy	2ryy	2ryy	0r	.
.	.	.	.	.	.	16ee\	.	.	.	.	.	.
.	.	.	.	.	.	16dd\	.	.	.	.	.	.
.	.	.	.	.	.	16cc\JJ	.	.	.	.	.	.
[4c\	.	4a\	.	.	.	16b\LL	.	.	.	.	.	.
.	.	.	.	.	.	16a\	.	.	.	.	.	.
.	.	.	.	.	.	16cc\	.	.	.	.	.	.
.	.	.	.	.	.	16ee\JJ)	.	.	.	.	.	.
=14	=14	=14	=14	=14	=14	=14	=14	=14	=14	=14	=14	=14
4c\]	.	4f#X\	.	2d/)	.	8.dd\L	.	2ryy	2ryy	2ryy	.	.
.	.	.	.	.	.	32ee\LL	.	.	.	.	.	.
.	.	.	.	.	.	32ff#\JJJ	.	.	.	.	.	.
4B\	.	4g\	.	.	.	8.gg\L	.	.	.	.	.	.
.	.	.	.	.	.	16dd\Jk	.	.	.	.	.	.
=15	=15	=15	=15	=15	=15	=15	=15	=15	=15	=15	=15	=15
.	.	.	.	.	.	8qqdd/	.	.	.	.	.	.
8A\L	.	2a\	.	8e/	.	8cc#X\	.	2ryy	2ryy	2ryy	.	.
8A\	.	.	.	4e/	.	4cc#\	.	.	.	.	.	.
8G\	.	.	.	.	.	.	.	.	.	.	.	.
8G\J	.	.	.	8e/	.	8cc#\	.	.	.	.	.	.
=16	=16	=16	=16	=16	=16	=16	=16	=16	=16	=16	=16	=16
8F#\L	.	2d\	.	8a/	.	8ccn\	ff	2ryy	2ryy	2ryy	.	.
8F#\	.	.	.	4a/	.	4cc\	.	.	.	.	.	.
8D\	.	.	.	.	.	.	.	.	.	.	.	.
8D\J	.	.	.	8a/	.	8cc\	.	.	.	.	.	.
=17	=17	=17	=17	=17	=17	=17	=17	=17	=17	=17	=17	=17
!LO:TX:t=P:problem:mixed beam	!	!	!	!	!	!	!LO:DY:t=p	!	!	!	!LO:N:vis=00	!
8G\L	.	8d\L	.	4g/	.	16b\LL	p	2ryy	2ryy	2ryy	0r	.
.	.	.	.	.	.	16dd\	.	.	.	.	.	.
8BB/	.	8d\	.	.	.	16g\	.	.	.	.	.	.
.	.	.	.	.	.	16b\JJ	.	.	.	.	.	.
.	.	.	.	8qqd/	.	8qqb/	.	.	.	.	.	.
8C/	.	8e\	.	8c/L	.	8a/L	.	.	.	.	.	.
8D/J	.	8d\J	.	16B/L	.	16g/L	.	.	.	.	.	.
.	.	.	.	16A/JJ	.	16f#/JJ	.	.	.	.	.	.
=18	=18	=18	=18	=18	=18	=18	=18	=18	=18	=18	=18	=18
8A\L	.	(2a\	.	8e/	.	8cc#X\	.	2ryy	2ryy	2ryy	.	.
8A\	.	.	.	4e/	.	4cc#\	.	.	.	.	.	.
8G\	.	.	.	.	.	.	.	.	.	.	.	.
8G\J	.	.	.	8e/	.	8cc#\	.	.	.	.	.	.
!	!	!	!	!LO:LB:g=original	!	!LO:LB:g=original	!	!	!	!	!	!
=19	=19	=19	=19	=19	=19	=19	=19	=19	=19	=19	=19	=19
8F#\L	.	2d\)	.	8a/	.	8ccn\	f	2ryy	2ryy	2ryy	.	.
8F#\	.	.	.	4a/	.	4cc\	.	.	.	.	.	.
8D\	.	.	.	.	.	.	.	.	.	.	.	.
8D\J	.	.	.	8a/	.	8cc\	.	.	.	.	.	.
=20	=20	=20	=20	=20	=20	=20	=20	=20	=20	=20	=20	=20
*	*	*	*	*	*	*tuplet	*	*	*	*	*	*
!	!	!	!	!	!	!LO:TUP:b	!LO:DY:t=p	!	!	!	!	!
4G\	.	4d\	.	4g/	.	(24b/LL	p	2ryy	2ryy	2ryy	.	.
.	.	.	.	.	.	24a/	.	.	.	.	.	.
.	.	.	.	.	.	24g/JJ)	.	.	.	.	.	.
.	.	.	.	.	.	16g/LL	.	.	.	.	.	.
.	.	.	.	.	.	16g/JJ	.	.	.	.	.	.
*	*	*	*	*	*	*Xtuplet	*	*	*	*	*	*
!	!	!	!	!LO:TUP:b	!	!	!	!	!	!	!	!
8r	.	8r	.	(24f#X/LL	.	24a/LL	.	.	.	.	.	.
.	.	.	.	24g/	.	24b/	.	.	.	.	.	.
.	.	.	.	24a/JJ)	.	24cc/JJ	.	.	.	.	.	.
8D\	.	8d\	.	16a/LL	.	16cc/LL	.	.	.	.	.	.
.	.	.	.	16a/JJ	.	16cc/JJ	.	.	.	.	.	.
=21	=21	=21	=21	=21	=21	=21	=21	=21	=21	=21	=21	=21
*	*	*	*	*	*	*tuplet	*	*	*	*	*	*
!	!	!	!	!	!	!LO:TUP:b	!	!	!	!	!LO:N:vis=00	!
4G\	.	2d\	.	4g/	.	(24b/LL	.	2ryy	2ryy	2ryy	0r	.
.	.	.	.	.	.	24a/	.	.	.	.	.	.
.	.	.	.	.	.	24g/JJ)	.	.	.	.	.	.
.	.	.	.	.	.	16g'/LL	.	.	.	.	.	.
.	.	.	.	.	.	16g'/JJ	.	.	.	.	.	.
!	!	!	!	!LO:TUP:b	!	!LO:TUP:b	!	!	!	!	!	!
8r	.	.	.	(24f#/LL	.	(24a/LL	.	.	.	.	.	.
.	.	.	.	24g/	.	24b/	.	.	.	.	.	.
.	.	.	.	24a/JJ)	.	24cc/JJ)	.	.	.	.	.	.
8D\	.	.	.	16a/LL	.	16cc/LL	.	.	.	.	.	.
.	.	.	.	16a/JJ	.	16cc/JJ	.	.	.	.	.	.
=22	=22	=22	=22	=22	=22	=22	=22	=22	=22	=22	=22	=22
8G\L	.	8B/L	.	16g`/LL	.	16b\LL	.	2ryy	2ryy	2ryy	.	.
.	.	.	.	(16g/	.	16gg\	.	.	.	.	.	.
8A\	.	8c/	.	16f#X/	.	16ff#\	.	.	.	.	.	.
.	.	.	.	16a/JJ	.	16aa\JJ	.	.	.	.	.	.
8B\	.	8d/	.	16g/LL)	.	16gg\LL	.	.	.	.	.	.
.	.	.	.	16d/	.	16dd\JJ	.	.	.	.	.	.
8c\J	.	8e/J	.	16e/	.	(32ee\LLL	.	.	.	.	.	.
.	.	.	.	.	.	32cc\	.	.	.	.	.	.
.	.	.	.	16a/JJ	.	32b\	.	.	.	.	.	.
.	.	.	.	.	.	32a\JJJ)	.	.	.	.	.	.
=23	=23	=23	=23	=23	=23	=23	=23	=23	=23	=23	=23	=23
*	*	*tremolo	*	*	*	*	*	*	*	*	*	*
!LO:TX:t=P:problem:mixed beam	!	!	!	!	!	!	!	!	!	!	!	!
8d\L	.	8d\L	.	4g/	.	4g/	.	2ryy	2ryy	2ryy	.	.
8d\	.	8d\	.	.	.	.	.	.	.	.	.	.
!	!	!	!	!LO:TX:a:t=t	!	!LO:TX:a:t=t	!	!	!	!	!	!
8D/	.	8d\	.	4f#/	.	4a/	.	.	.	.	.	.
8D/J	.	8d\J	.	.	.	.	.	.	.	.	.	.
*	*	*Xtremolo	*	*	*	*	*	*	*	*	*	*
=24	=24	=24	=24	=24	=24	=24	=24	=24	=24	=24	=24	=24
4G\	.	4g\	.	8g/	.	8g/	.	2ryy	2ryy	2ryy	.	.
.	.	.	.	4B/	.	4d/	.	.	.	.	.	.
8r	.	8r	.	.	.	.	.	.	.	.	.	.
8D\	.	8d\	.	8A/	.	8c/	pp	.	.	.	.	.
!	!	!LO:LB:g=original	!	!	!	!LO:LB:g=original	!	!	!	!	!	!
=25	=25	=25	=25	=25	=25	=25	=25	=25	=25	=25	=25	=25
4.GG/	.	4.d\	.	(4A/	.	(4c/	.	2ryy	2ryy	2ryy	2r	.
.	.	.	.	8G/)	.	8B/)	.	.	.	.	.	.
8r	.	8r	.	8r	.	8r	.	.	.	.	.	.
!LO:LB:g=original	!	!	!	!	!	!	!	!	!	!	!	!
=26	=26	=26	=26	=26	=26	=26	=26	=26	=26	=26	=26	=26
*	*	*tuplet	*	*	*	*	*	*	*	*	*2\right	*
!	!	!	!	!	!	!	!	!	!	!	!	!LO:HP:t=crescend
!	!	!	!	!	!	!	!	!	!	!	!LO:TX:a:t=Solo	!
2GG/	p	4r	.	4r	pp	(24dd\LL	pp	2ryy	2ryy	2ryy	[<2dd\	<
.	.	.	.	.	.	24cc\	.	.	.	.	.	.
.	.	.	.	.	.	24b\JJ)	.	.	.	.	.	.
.	.	.	.	.	.	16b'\LL	.	.	.	.	.	.
.	.	.	.	.	.	16b'\JJ	.	.	.	.	.	.
!	!	!LO:TUP:a	!	!LO:TUP:b	!	!LO:TX:b:t=Solo	!	!	!	!	!	!
.	.	(24g\LL	pp	(24B/LL	.	8b\	.	.	.	.	.	.
.	.	24a\	.	24c/	.	.	.	.	.	.	.	.
.	.	24b\JJ)	.	24d/JJ)	.	.	.	.	.	.	.	.
.	.	16b\LL	.	16d/LL	.	8r	.	.	.	.	.	.
.	.	16b\JJ	.	16d/JJ	.	.	.	.	.	.	.	.
!	!	!	!	!LO:LB:g=original	!	!	!	!	!	!	!	!
=27	=27	=27	=27	=27	=27	=27	=27	=27	=27	=27	=27	=27
*	*	*Xtuplet	*	*Xtuplet	*	*	*	*	*	*	*	*
!	!	!	!	!	!	!LO:TUP:b	!	!	!	!	!	!
4G\	.	4r	.	4r	.	(24b/LL	pp	2ryy	2ryy	2ryy	2dd\_<	.
.	.	.	.	.	.	24a/	.	.	.	.	.	.
.	.	.	.	.	.	24g/JJ)	.	.	.	.	.	.
.	.	.	.	.	.	16g`/LL	.	.	.	.	.	.
.	.	.	.	.	.	16g`/JJ	.	.	.	.	.	.
4r	.	24b\LL	.	24d/LL	.	8g`/	.	.	.	.	.	.
.	.	24a\	.	24c/	.	.	.	.	.	.	.	.
.	.	24g\JJ	.	24B/JJ	.	.	.	.	.	.	.	.
.	.	16g\LL	.	16B/LL	.	8r	.	.	.	.	.	.
.	.	16g\JJ	.	16B/JJ	.	.	.	.	.	.	.	.
=28	=28	=28	=28	=28	=28	=28	=28	=28	=28	=28	=28	=28
*	*	*	*	*tuplet	*	*	*	*	*	*	*	*
4D\	.	4r	.	4r	.	(24cc\LL	.	2ryy	2ryy	2ryy	2ddTT\_<	.
.	.	.	.	.	.	24b\	.	.	.	.	.	.
.	.	.	.	.	.	24a\JJ)	.	.	.	.	.	.
.	.	.	.	.	.	16a/LL	.	.	.	.	.	.
.	.	.	.	.	.	16a/JJ	.	.	.	.	.	.
!	!	!	!	!LO:TUP:b	!	!	!	!	!	!	!	!
4r	.	24F#X/LL	.	(24A/LL	.	8a/	.	.	.	.	.	.
.	.	24G/	.	24B/	.	.	.	.	.	.	.	.
.	.	24A/JJ	.	24c/JJ)	.	.	.	.	.	.	.	.
.	.	16A/LL	.	16c/LL	.	8r	.	.	.	.	.	.
.	.	16A/JJ	.	16c/JJ	.	.	.	.	.	.	.	.
=29	=29	=29	=29	=29	=29	=29	=29	=29	=29	=29	=29	=29
!	!	!	!	!	!	!LO:TUP:b	!	!	!	!	!	!
4DD/	.	4r	.	4r	.	(24a/LL	.	2ryy	2ryy	2ryy	2ddTTT\_<	.
.	.	.	.	.	.	24g/	.	.	.	.	.	.
.	.	.	.	.	.	24f#/JJ)	.	.	.	.	.	.
.	.	.	.	.	.	16f#`/LL	.	.	.	.	.	.
.	.	.	.	.	.	16f#`/JJ	.	.	.	.	.	.
!	!	!	!	!LO:TUP:b	!	!	!	!	!	!	!	!
4r	.	24A/LL	.	(24c/LL	.	8f#`/	.	.	.	.	.	.
.	.	24G/	.	24B/	.	.	.	.	.	.	.	.
.	.	24F#/JJ	.	24A/JJ)	.	.	.	.	.	.	.	.
.	.	16F#/LL	.	16A`/LL	.	8r	.	.	.	.	.	.
.	.	16F#/JJ	.	16A`/JJ	.	.	.	.	.	.	.	.
=30	=30	=30	=30	=30	=30	=30	=30	=30	=30	=30	=30	=30
*tremolo	*	*	*	*	*	*	*	*	*	*	*	*
8GG/L	.	[2G/	.	(4B/	.	(4g/	.	2ryy	2ryy	2ryy	8.dd\L]	.
8GG/	.	.	.	.	.	.	.	.	.	.	.	.
.	.	.	.	.	.	.	.	.	.	.	(32ee\LL	.
.	.	.	.	.	.	.	.	.	.	.	32dd\JJJ)	.
8GG/	.	.	.	8c/L	.	16a/LL	.	.	.	.	16cc\LL	.
.	.	.	.	.	.	16g/	.	.	.	.	16b\	.
8GG/J	.	.	.	8d/J)	.	16f#X/	.	.	.	.	16a\	.
.	.	.	.	.	.	16g/JJ)	.	.	.	.	16g\JJ	.
=31	=31	=31	=31	=31	=31	=31	=31	=31	=31	=31	=31	=31
.	.	.	.	.	.	.	.	.	.	.	16qqcc/LL	.
.	.	.	.	.	.	.	.	.	.	.	16qqdd/JJ	.
8GG/L	.	4G/]	.	(16e/LL	.	(16cc\LL	.	2ryy	2ryy	2ryy	(16ee\LL	.
.	.	.	.	16d/J)	.	16b\J)	.	.	.	.	16dd\J)	.
8GG/	.	.	.	8d`/J	.	8b`\J	.	.	.	.	8dd\J	.
8GG/	.	4B'/	.	(4g/	.	4dd\	.	.	.	.	8r	.
*	*	*	*	*	*	*	*	*	*	*	*Xtuplet	*
8GG/J	.	.	.	.	.	.	.	.	.	.	(24gg\LL	.
.	.	.	.	.	.	.	.	.	.	.	24b\	.
.	.	.	.	.	.	.	.	.	.	.	24dd\JJ)	.
!	!	!	!	!	!	!LO:LB:g=original	!	!	!	!	!LO:LB:g=original	!
*Xtremolo	*	*	*	*	*	*	*	*	*	*	*	*
=32	=32	=32	=32	=32	=32	=32	=32	=32	=32	=32	=32	=32
!	!	!	!	!	!	!LO:TX:a:t=problem:brak nuty na 1 w takcie	!	!	!	!	!	!
8E\L	.	8e\L	.	8g/L	.	(8dd\yy	.	2ryy	2ryy	2ryy	(32dd\LLL	.
.	.	.	.	.	.	.	.	.	.	.	32cc\	.
.	.	.	.	.	.	.	.	.	.	.	32b\	.
.	.	.	.	.	.	.	.	.	.	.	32cc\JJ)	.
8E\	.	8e\	.	8g/)	.	8cc\)	.	.	.	.	8cc`\J	.
8F#\	.	8f#\	.	8a/	.	8cc\L	.	.	.	.	(32aa\LLL	.
.	.	.	.	.	.	.	.	.	.	.	32gg\	.
.	.	.	.	.	.	.	.	.	.	.	32ff#\	.
.	.	.	.	.	.	.	.	.	.	.	32ee\JJJ	.
8F#\J	.	8f#\J	.	8a/J	.	(16dd\L	.	.	.	.	32dd\LLL	.
.	.	.	.	.	.	.	.	.	.	.	32ff#\	.
.	.	.	.	.	.	16cc\JJ)	.	.	.	.	32aa\	.
.	.	.	.	.	.	.	.	.	.	.	32ccc\JJJ)	.
=33	=33	=33	=33	=33	=33	=33	=33	=33	=33	=33	=33	=33
.	.	.	.	.	.	8qqdd/	.	.	.	.	8qqddd/	.
8G\L	.	8g\L	.	4g/	.	(16cc\LL	.	2ryy	2ryy	2ryy	16ccc\LL	.
.	.	.	.	.	.	16b\J)	.	.	.	.	16bb\J	.
!	!	!	!	!	!	!	!	!	!	!	!LO:TX:a:t=problem:niejednoznaczne oznaczenie	!
!	!	!	!	!	!	!	!	!	!	!	!LO:TX:a:t=t	!
8G\	.	8g\	.	.	.	8b`\J	.	.	.	.	8bb\J	.
8B\	.	8b\	.	4r	.	8r	.	.	.	.	[4gg\	.
8G\J	.	8g\J	.	.	.	[8dd\	.	.	.	.	.	.
=34	=34	=34	=34	=34	=34	=34	=34	=34	=34	=34	=34	=34
4G\	.	4g\	.	4r	.	16dd\LL]	.	2ryy	2ryy	2ryy	(32gg\LLL]	.
.	.	.	.	.	.	.	.	.	.	.	32aa\	.
.	.	.	.	.	.	16cc\J	.	.	.	.	32ff#\	.
.	.	.	.	.	.	.	.	.	.	.	32aa\JJJ)	.
.	.	.	.	.	.	8b`\J	.	.	.	.	16.gg\LL	.
.	.	.	.	.	.	.	.	.	.	.	32dd\JJk	.
.	.	.	.	.	.	.	.	.	.	.	8qqee/	.
8r	.	8r	.	8r	.	(16b\LL	.	.	.	.	16dd\LL	.
.	.	.	.	.	.	16a\)	.	.	.	.	16cc\	.
.	.	.	.	.	.	.	.	.	.	.	8qqdd/	.
8G\	.	8g\	.	8g/	.	(16a\	.	.	.	.	16cc\	.
.	.	.	.	.	.	16g\JJ)	.	.	.	.	16b\JJ	.
!	!	!LO:LB:g=original	!	!LO:LB:g=original	!	!	!	!	!	!	!	!
=35	=35	=35	=35	=35	=35	=35	=35	=35	=35	=35	=35	=35
(4d\	.	(4dd\	.	(4d/	.	4g/	.	2ryy	2ryy	2ryy	4b\	.
8D/)	.	8d\)	.	16d/LL	.	(16f#/LL	.	.	.	.	8a/	.
.	.	.	.	16f#/)	.	16a/	.	.	.	.	.	.
8r	.	8r	.	16e/	.	16g/	.	.	.	.	8r	.
.	.	.	.	16g/JJ	.	16b/JJ)	.	.	.	.	.	.
=36	=36	=36	=36	=36	=36	=36	=36	=36	=36	=36	=36	=36
(2D\	.	(2d\	.	8.f#/L	.	8.a/L	.	2ryy	2ryy	2ryy	[2dd\	.
.	.	.	.	16d/K	.	16f#/K	.	.	.	.	.	.
.	.	.	.	8f#/	.	8a/	.	.	.	.	.	.
.	.	.	.	8f#/J	.	8a/J	.	.	.	.	.	.
=37	=37	=37	=37	=37	=37	=37	=37	=37	=37	=37	=37	=37
!	!	!	!	!	!	!	!	!	!	!	!LO:TX:a:t=problem:brak caudy	!
2E\)	.	2e\)	.	4.e/	.	4.g/	.	2ryy	2ryy	2ryy	4dd\]	.
.	.	.	.	.	.	.	.	.	.	.	32cc#X\LLL	.
.	.	.	.	.	.	.	.	.	.	.	32dd\	.
.	.	.	.	.	.	.	.	.	.	.	32ee\	.
.	.	.	.	.	.	.	.	.	.	.	32ff#\JJ	.
.	.	.	.	8c#X/	.	8e/	.	.	.	.	[8gg\J	.
!	!	!	!	!	!	!	!	!	!	!	!LO:LB:g=original	!
=38	=38	=38	=38	=38	=38	=38	=38	=38	=38	=38	=38	=38
!LO:TX:t=P:problem:mixed beam	!	!LO:TX:t=P:problem:mixed beam	!	!	!	!	!	!	!	!	!	!
8D\L	.	8d\L	.	8d/L	.	8f#/L	.	2ryy	2ryy	2ryy	8gg\L]	.
8DD/J	.	8D/J	.	8f#/J	.	8a/J	.	.	.	.	8ff#\J	.
.	.	.	.	.	.	.	.	.	.	.	8qqa/	.
8r	.	8r	.	4r	.	4r	.	.	.	.	[4aa\	.
8F#\	.	8f#\	.	.	.	.	.	.	.	.	.	.
=39	=39	=39	=39	=39	=39	=39	=39	=39	=39	=39	=39	=39
*	*	*	*	*	*	*2\right	*	*	*	*	*	*
4.G\	.	4.g\	.	4.d/	.	2b\	.	2ryy	2ryy	2ryy	16aa\LL]	.
.	.	.	.	.	.	.	.	.	.	.	16b\	.
.	.	.	.	.	.	.	.	.	.	.	16gg\	.
.	.	.	.	.	.	.	.	.	.	.	16ff#\JJ	.
.	.	.	.	.	.	.	.	.	.	.	16ff#\LL	.
.	.	.	.	.	.	.	.	.	.	.	16ee\	.
8G#X\	.	8g#X\	.	8e/	.	.	.	.	.	.	16ee\	.
.	.	.	.	.	.	.	.	.	.	.	16dd\JJ	.
=40	=40	=40	=40	=40	=40	=40	=40	=40	=40	=40	=40	=40
8A\L	.	8a\L	.	[4e/	.	4a/	.	2ryy	2ryy	2ryy	(4dd\	.
8E\	.	8e\	.	.	.	.	.	.	.	.	.	.
!	!	!LO:TX:a:t=sic:16c#	!	!	!	!	!	!	!	!	!	!
8AA\J	.	(16c\L	.	16e/LL]	.	8a/	.	.	.	.	8cc#X\)	.
.	.	16B\	.	16d/	.	.	.	.	.	.	.	.
8r	.	16A\	.	16c#X/	.	8r	.	.	.	.	8r	.
.	.	16B\JJ)	.	16d/JJ	.	.	.	.	.	.	.	.
!	!	!	!	!	!	!LO:LB:g=original	!	!	!	!	!	!
=41	=41	=41	=41	=41	=41	=41	=41	=41	=41	=41	=41	=41
!	!	!	!	!	!	!LO:TX:b:i:t=dolce	!	!	!	!	!	!
8AA/	.	8c#X\	.	8e/	.	16e/LL	.	2ryy	2ryy	2ryy	(16gg\LL	.
.	.	.	.	.	.	16a/	.	.	.	.	16ee\	.
8r	.	8r	.	8r	.	16e/	.	.	.	.	16dd\	.
.	.	.	.	.	.	16a/JJ	.	.	.	.	16cc#X\JJ)	.
!	!	!	!	!	!	!	!	!	!	!	!LO:TX:a:t=problem:krzyżyk na innym polu niż nuta	!
8A\	.	8e\	.	8g/	.	(16e/LL	.	.	.	.	8cc#X\L	.
.	.	.	.	.	.	16a/	.	.	.	.	.	.
8r	.	8r	.	8r	.	16e/	.	.	.	.	8cc#\J	.
.	.	.	.	.	.	16a/JJ	.	.	.	.	.	.
!LO:LB:g=original	!	!	!	!	!	!	!	!	!	!	!	!
=42	=42	=42	=42	=42	=42	=42	=42	=42	=42	=42	=42	=42
8D\	.	8d\	.	8f#/	.	16f#/LL	.	2ryy	2ryy	2ryy	8.dd\L	.
.	.	.	.	.	.	16a/	.	.	.	.	.	.
8r	.	8r	.	8r	.	16f#/	.	.	.	.	.	.
.	.	.	.	.	.	16a/JJ	.	.	.	.	16ff#\Jk	.
.	.	.	.	.	.	.	.	.	.	.	8qqa/	.
8DD/	.	8f#\	.	8a/	.	(16f#/LL	.	.	.	.	8aa\	.
.	.	.	.	.	.	16a/))	.	.	.	.	.	.
8r	.	8r	.	8r	.	16dd'/	.	.	.	.	8r	.
.	.	.	.	.	.	16dd'/JJ	.	.	.	.	.	.
=43	=43	=43	=43	=43	=43	=43	=43	=43	=43	=43	=43	=43
8AA/	.	8c#X\	.	8e/	.	16e/LL	.	2ryy	2ryy	2ryy	16gg\LL	p
.	.	.	.	.	.	(16a/	.	.	.	.	16ee\	.
8r	.	8r	.	8r	.	16e/	.	.	.	.	16dd\	.
.	.	.	.	.	.	16a/JJ	.	.	.	.	16cc#X\JJ	.
8A\	.	8e\	.	8g/	.	16e/LL	.	.	.	.	8cc#\L	.
.	.	.	.	.	.	16a/	.	.	.	.	.	.
8r	.	8r	.	8r	.	16e/	.	.	.	.	8cc#\J	.
.	.	.	.	.	.	16a/JJ)	.	.	.	.	.	.
!	!	!	!	!LO:LB:g=original	!	!	!	!	!	!	!LO:LB:g=original	!
=44	=44	=44	=44	=44	=44	=44	=44	=44	=44	=44	=44	=44
!	!	!LO:N:vis=8	!	!	!	!	!	!	!	!	!	!
8D\L	f	16r	f	16a/KL	.	16f#/KL	f	2ryy	2ryy	2ryy	(16dd\LL	.
!	!	!	!	!LO:TX:a:t=problem:brak ósemki	!	!	!	!	!	!	!	!
.	.	8d\L	.	8c/yy	.	8a/	.	.	.	.	16ccn\JJ	f
8F#X\	.	.	.	.	.	.	.	.	.	.	4.ccn\)	.
.	.	8d\	.	8cn/	f	8a/	.	.	.	.	.	.
8F#\	.	.	.	.	.	.	.	.	.	.	.	.
.	.	8d\	.	8c/	.	8a/	.	.	.	.	.	.
8F#\J	.	.	.	.	.	.	.	.	.	.	.	.
.	.	16d\Jk	.	16c/Jk	.	16a/Jk	.	.	.	.	.	.
!	!	!LO:LB:g=original	!	!	!	!	!	!	!	!	!	!
=45	=45	=45	=45	=45	=45	=45	=45	=45	=45	=45	=45	=45
!	!	!	!	!	!	!	!LO:DY:t=p.	!	!	!	!.	!
4G\	.	8d\	.	8d/	p	8b\	p	2ryy	2ryy	2ryy	24b`\LL	f
.	.	.	.	.	.	.	.	.	.	.	(24ee\	.
.	.	.	.	.	.	.	.	.	.	.	24dd#X\JJ)	.
.	.	8r	.	8r	.	8r	.	.	.	.	24ee`\LL	.
.	.	.	.	.	.	.	.	.	.	.	(24gg\	.
.	.	.	.	.	.	.	.	.	.	.	24ff#\JJ)	.
4r	.	4r	.	4r	.	4r	.	.	.	.	24gg\LL	.
.	.	.	.	.	.	.	.	.	.	.	(24bb\	.
.	.	.	.	.	.	.	.	.	.	.	24aa#X\JJ)	.
.	.	.	.	.	.	.	.	.	.	.	24bb`\LL	.
.	.	.	.	.	.	.	.	.	.	.	(24gg\	.
.	.	.	.	.	.	.	.	.	.	.	24ee\JJ)	.
=46	=46	=46	=46	=46	=46	=46	=46	=46	=46	=46	=46	=46
*	*	*	*	*tremolo	*	*	*	*	*	*	*	*
!	!	!LO:TX:a:t=6	!	!	!	!	!LO:DY:t=p.	!	!	!	!	!
!	!	!LO:N:vis=00	!	!	!	!	!	!	!	!	!	!
16A\LL	.	0r	.	16f#/LL	.	16dd\LL	p	2ryy	2ryy	2ryy	4dd\	.
16A\	.	.	.	16f#/	.	16dd\	.	.	.	.	.	.
16A\	.	.	.	16f#/	.	16dd\	.	.	.	.	.	.
16A\JJ	.	.	.	16f#/JJ	.	16dd\JJ	.	.	.	.	.	.
*tremolo	*	*	*	*	*	*	*	*	*	*	*	*
!	!	!	!	!	!	!	!	!	!	!	!LO:TX:a:t=t	!
16AA/LL	.	.	.	16g/LL	.	16cc#X\LL	.	.	.	.	4eet\	.
16AA/	.	.	.	16g/	.	16cc#\	.	.	.	.	.	.
16AA/	.	.	.	16g/	.	16cc#\	.	.	.	.	.	.
16AA/JJ	.	.	.	16g/JJ	.	16cc#\JJ	.	.	.	.	.	.
=47	=47	=47	=47	=47	=47	=47	=47	=47	=47	=47	=47	=47
*	*	*	*	*Xtremolo	*	*	*	*	*	*	*tuplet	*
!	!	!	!	!	!	!	!	!	!	!	!LO:TUP:a	!
8D\	.	.	.	8a/	.	8dd\	.	2ryy	2ryy	2ryy	24ff#\LL	.
.	.	.	.	.	.	.	.	.	.	.	(24ee\	.
.	.	.	.	.	.	.	.	.	.	.	24dd\JJ)	.
8r	.	.	.	8r	.	8r	.	.	.	.	16dd'\LL	.
.	.	.	.	.	.	.	.	.	.	.	16dd'\JJ	.
!	!	!	!	!	!	!	!	!	!	!	!LO:TUP:a	!
8AA/	.	.	.	8a/	.	8ee\	.	.	.	.	24ee'\LL	.
.	.	.	.	.	.	.	.	.	.	.	(24ff#\	.
.	.	.	.	.	.	.	.	.	.	.	24gg\JJ)	.
8r	.	.	.	8r	.	8r	.	.	.	.	16gg'\LL	.
.	.	.	.	.	.	.	.	.	.	.	16gg'\JJ	.
!	!	!	!	!	!	!LO:LB:g=original	!	!	!	!	!	!
=48	=48	=48	=48	=48	=48	=48	=48	=48	=48	=48	=48	=48
!	!	!	!	!	!	!	!	!	!	!	!LO:TUP:a	!
8D\	.	.	.	8a/	.	8dd\	.	2ryy	2ryy	2ryy	24ff#\LL	.
.	.	.	.	.	.	.	.	.	.	.	(24ee\	.
.	.	.	.	.	.	.	.	.	.	.	24dd\JJ)	.
8r	.	.	.	8r	.	8r	.	.	.	.	16dd\LL	.
.	.	.	.	.	.	.	.	.	.	.	16dd\JJ	.
!	!	!	!	!	!	!	!	!	!	!	!LO:TUP:a	!
8AA/	.	.	.	8a/	.	8ee\	.	.	.	.	24ee\LL	.
.	.	.	.	.	.	.	.	.	.	.	(24ff#\	.
.	.	.	.	.	.	.	.	.	.	.	24gg\JJ)	.
8r	.	.	.	8r	.	8r	.	.	.	.	16gg'\LL	.
.	.	.	.	.	.	.	.	.	.	.	16gg'\JJ	.
!	!	!	!	!	!	!	!	!	!	!	!LO:LB:g=original	!
=49	=49	=49	=49	=49	=49	=49	=49	=49	=49	=49	=49	=49
8D\	.	.	.	8f#X/	.	8a/	.	2ryy	2ryy	2ryy	(16ff#\LL	.
.	.	.	.	.	.	.	.	.	.	.	16ddd\	.
8r	.	.	.	8r	.	8r	.	.	.	.	16ccc#X\	.
.	.	.	.	.	.	.	.	.	.	.	16cccn\JJ	.
4r	.	.	.	4r	.	4r	.	.	.	.	16bb\LL	.
.	.	.	.	.	.	.	.	.	.	.	16bb-X\	.
.	.	.	.	.	.	.	.	.	.	.	16aa\	.
.	.	.	.	.	.	.	.	.	.	.	16gg#X\JJ)	.
=50	=50	=50	=50	=50	=50	=50	=50	=50	=50	=50	=50	=50
!	!	!LO:N:vis=0	!	!	!	!	!	!	!	!	!	!
8A\L	.	1r	.	16r	.	16r	.	2ryy	2ryy	2ryy	4.aa\	.
.	.	.	.	16f#/LL	.	16dd\LL	.	.	.	.	.	.
8A\	.	.	.	16f#/	.	16dd\	.	.	.	.	.	.
.	.	.	.	16f#/JJ	.	16dd\JJ	.	.	.	.	.	.
*	*	*	*	*tremolo	*	*tremolo	*	*	*	*	*	*
8A\	.	.	.	16f#/LL	.	16dd\LL	.	.	.	.	.	.
.	.	.	.	16f#/	.	16dd\	.	.	.	.	.	.
.	.	.	.	.	.	.	.	.	.	.	16qqbb/LL	.
.	.	.	.	.	.	.	.	.	.	.	16qqaa/JJ	.
8A\J	.	.	.	16f#/	.	16dd\	.	.	.	.	32ggn\LLL	.
.	.	.	.	.	.	.	.	.	.	.	(32ff#\	.
.	.	.	.	16f#/JJ	.	16dd\JJ	.	.	.	.	32ee\	.
.	.	.	.	.	.	.	.	.	.	.	32dd\JJJ)	.
=51	=51	=51	=51	=51	=51	=51	=51	=51	=51	=51	=51	=51
!	!	!	!	!	!	!	!	!	!	!	!LO:TX:a:t=problem:niejednoznaczne oznaczenie \ntryl/ ozdobnik	!
8AA/L	.	.	.	16e/LL	.	16dd\LL	.	2ryy	2ryy	2ryy	2ee\	.
.	.	.	.	16e/	.	16dd\	.	.	.	.	.	.
8AA/	.	.	.	16e/	.	16dd\	.	.	.	.	.	.
.	.	.	.	16e/	.	16dd\JJ	.	.	.	.	.	.
8AA/	.	.	.	16e/	.	16cc#X\LL	.	.	.	.	.	.
.	.	.	.	16e/	.	16cc#\	.	.	.	.	.	.
8AA/J	.	.	.	16e/	.	16cc#\	.	.	.	.	.	.
.	.	.	.	16e/JJ	.	16cc#\JJ	.	.	.	.	.	.
.	.	.	.	.	.	.	.	.	.	.	16qqdd/LL	.
.	.	.	.	.	.	.	.	.	.	.	16qqee/JJ	.
*Xtremolo	*	*	*	*Xtremolo	*	*Xtremolo	*	*	*	*	*	*
!	!	!	!	!LO:LB:g=original	!	!	!	!	!	!	!	!
=52	=52	=52	=52	=52	=52	=52	=52	=52	=52	=52	=52	=52
.	.	.	.	.	.	(8qqdd/	f	.	.	.	.	.
!	!	!	!	!LO:TUP:b	!	!LO:TUP:a	!	!	!	!	!	!
4D\	f	8a\L	f	(24d/LL	f	24ff#\LL	.	2ryy	2ryy	2ryy	4dd\	.
.	.	.	.	24e/	.	24ee\	.	.	.	.	.	.
.	.	.	.	24f#/JJ)	.	24dd\JJ)	.	.	.	.	.	.
.	.	8a\	.	16f#`/LL	.	16dd'\LL	.	.	.	.	.	.
.	.	.	.	16f#`/JJ	.	16dd'\JJ	.	.	.	.	.	.
*	*	*	*	*Xtuplet	*	*	*	*	*	*	*	*
!	!	!	!	!	!	!LO:TUP:a	!	!	!	!	!	!
8r	.	8a\	.	24e/LL	.	(24ee\LL	.	.	.	.	4r	.
.	.	.	.	24d/	.	24ff#\	.	.	.	.	.	.
.	.	.	.	24c#X/JJ	.	24gg\JJ)	.	.	.	.	.	.
8A\	.	8a\J	.	16c#/LL	.	16gg\LL	.	.	.	.	.	.
.	.	.	.	16c#/JJ	.	16gg\JJ	.	.	.	.	.	.
=53	=53	=53	=53	=53	=53	=53	=53	=53	=53	=53	=53	=53
*	*	*	*	*tuplet	*	*	*	*	*	*	*	*
!	!	!	!	!	!	!	!	!	!	!	!LO:TX:a:t=5	!
!	!	!	!	!LO:TUP:b	!	!LO:TUP:a	!	!	!	!	!LO:N:vis=00	!
4D\	.	8a\L	.	(24d/LL	.	(24ff#\LL	.	2ryy	2ryy	2ryy	0r	.
.	.	.	.	24e/	.	24ee\	.	.	.	.	.	.
.	.	.	.	24f#/JJ)	.	24dd\JJ)	.	.	.	.	.	.
.	.	8a\	.	16f#/LL	.	16dd'\LL	.	.	.	.	.	.
.	.	.	.	16f#/JJ	.	16dd'\JJ	.	.	.	.	.	.
!	!	!	!	!LO:TUP:b	!	!LO:TUP:a	!	!	!	!	!	!
8r	.	8a\	.	(24e/LL	.	(24ee\LL	.	.	.	.	.	.
.	.	.	.	24d/	.	24ff#\	.	.	.	.	.	.
.	.	.	.	24c/JJ)	.	24gg\JJ)	.	.	.	.	.	.
8AA/	.	8a\J	.	16c/LL	.	16gg'\LL	.	.	.	.	.	.
.	.	.	.	16c/JJ	.	16gg'\JJ	.	.	.	.	.	.
!LO:LB:g=original	!	!	!	!	!	!LO:LB:g=original	!	!	!	!	!	!
=54	=54	=54	=54	=54	=54	=54	=54	=54	=54	=54	=54	=54
!	!	!	!	!LO:TX:t=P:problem:mixed beam	!	!	!	!	!	!	!	!
8D\L	.	16a\KL	.	16d/LL	.	(16ff#\LL	.	2ryy	2ryy	2ryy	.	.
.	.	8a\	.	16dd\	.	16gg\JJ)	.	.	.	.	.	.
8F#\	.	.	.	16dd\	.	4aa\	.	.	.	.	.	.
.	.	8a\	.	16dd\JJ	.	.	.	.	.	.	.	.
*	*	*	*	*tremolo	*	*	*	*	*	*	*	*
8F#\	.	.	.	16dd\LL	.	.	.	.	.	.	.	.
.	.	8a\	.	16dd\	.	.	.	.	.	.	.	.
!	!	!	!	!	!	!LO:TUP:a	!	!	!	!	!	!
8F#\J	.	.	.	16dd\	.	(24bb\LL	.	.	.	.	.	.
.	.	.	.	.	.	24ccc\	.	.	.	.	.	.
.	.	16a\Jk	.	16dd\JJ	.	.	.	.	.	.	.	.
.	.	.	.	.	.	24ddd\JJ)	.	.	.	.	.	.
=55	=55	=55	=55	=55	=55	=55	=55	=55	=55	=55	=55	=55
.	.	.	.	.	.	8qqaa#X/	.	.	.	.	.	.
8G\L	.	8b\	.	16dd\LL	.	8bb\	.	2ryy	2ryy	2ryy	.	.
.	.	.	.	16dd\	.	.	.	.	.	.	.	.
8G\	.	4b\	.	16dd\	.	4bb\	.	.	.	.	.	.
.	.	.	.	16dd\	.	.	.	.	.	.	.	.
8B\	.	.	.	16dd\	.	.	.	.	.	.	.	.
.	.	.	.	16dd\	.	.	.	.	.	.	.	.
8B\J	.	16a\LL	.	16dd\	.	16aan\LL	.	.	.	.	.	.
.	.	16g\JJ	.	16dd\JJ	.	16gg\JJ	.	.	.	.	.	.
=56	=56	=56	=56	=56	=56	=56	=56	=56	=56	=56	=56	=56
!LO:TX:t=P:problem:mixed beam	!	!	!	!	!	!	!	!	!	!	!	!
.	.	8qqf#/	.	.	.	8qqff#/	.	.	.	.	.	.
8A\L	.	8a\L	.	16dd\LL	.	8aa\L	.	2ryy	2ryy	2ryy	.	.
.	.	.	.	16dd\	.	.	.	.	.	.	.	.
!	!	!LO:N:vis=16	!	!	!	!	!	!	!	!	!	!
8A\	.	32g\LL	.	16dd\	.	(32gg\LL	.	.	.	.	.	.
!	!	!LO:N:vis=16	!	!	!	!	!	!	!	!	!	!
.	.	(32f#\	.	.	.	32ff#\	.	.	.	.	.	.
!	!	!LO:N:vis=16	!	!	!	!	!	!	!	!	!	!
.	.	32e\	.	16dd\JJ	.	32ee\	.	.	.	.	.	.
!	!	!LO:N:vis=16	!	!	!	!	!	!	!	!	!	!
.	.	32d\JJJ)	.	.	.	32dd\JJJ)	.	.	.	.	.	.
*	*	*	*	*Xtremolo	*	*	*	*	*	*	*	*
!	!	!LO:TX:a:t=t	!	!	!	!LO:TX:a:t=problem:niejednoznaczne oznaczenie \ntryl/ ozdobnik	!	!	!	!	!	!
8AA/	.	4e\	.	16dd\LL	.	4ee\	.	.	.	.	.	.
.	.	.	.	16dd\	.	.	.	.	.	.	.	.
8AA/J	.	.	.	16cc#X\	.	.	.	.	.	.	.	.
.	.	.	.	16cc#\JJ	.	.	.	.	.	.	.	.
=57	=57	=57	=57	=57	=57	=57	=57	=57	=57	=57	=57	=57
4D\	.	8d\	.	8dd\	.	8dd\	.	2ryy	2ryy	2ryy	2r	.
!	!	!	!LO:DY:t=p	!	!	!	!	!	!	!	!	!
.	.	4A/	p	4f#/	.	4a/	.	.	.	.	.	.
8r	.	.	.	.	.	.	.	.	.	.	.	.
!	!LO:DY:t=p	!	!	!	!	!	!	!	!	!	!	!
8AA/	p	8A/	.	8e/	p	8g/	.	.	.	.	.	.
!	!	!	!	!LO:LB:g=original	!	!	!	!	!	!	!	!
=58	=58	=58	=58	=58	=58	=58	=58	=58	=58	=58	=58	=58
8D/L	.	(4A/	.	4A/ 4e	.	(4g/	.	2ryy	2ryy	2ryy	4r	.
8AA/	.	.	.	.	.	.	.	.	.	.	.	.
8DD/J	.	8A/)	.	8d/	.	8f#/)	.	.	.	.	8r	.
*	*	*	*	*	*	*	*	*	*	*	*Xtuplet	*
8r	.	8r	.	8r	.	8r	.	.	.	.	24a/LL	.
.	.	.	.	.	.	.	.	.	.	.	24dd/	.
.	.	.	.	.	.	.	.	.	.	.	24ff#/JJ	.
=59	=59	=59	=59	=59	=59	=59	=59	=59	=59	=59	=59	=59
!	!	!LO:TX:a:t=22	!	!	!	!	!	!	!	!	!	!
!	!	!LO:N:vis=00	!	!	!	!	!	!	!	!	!	!
8D/	.	0r	.	8r	.	8r	.	2ryy	2ryy	2ryy	8.aa\L	.
!	!	!	!	!LO:TX:b:t=Solo	!LO:DY:t=p:	!LO:TX:b:t=Solo	!LO:DY:t=p:	!	!	!	!	!
8r	.	.	.	8d/	p	8f#/	p	.	.	.	.	.
.	.	.	.	.	.	.	.	.	.	.	(32bb\LL	.
.	.	.	.	.	.	.	.	.	.	.	32aa\JJJ)	.
8DD/	pp	.	.	(16e/LL	.	16g/LL	.	.	.	.	16gg\LL	.
.	.	.	.	16f#/	.	16a/	.	.	.	.	16ff#\	.
8r	.	.	.	16e/	.	16g/	.	.	.	.	16ee\	.
.	.	.	.	16d/JJ)	.	16f#/JJ	.	.	.	.	16dd\JJ	.
!	!	!	!	!	!	!	!	!	!	!	!LO:LB:g=original	!
=60	=60	=60	=60	=60	=60	=60	=60	=60	=60	=60	=60	=60
8AA/	.	.	.	8.c#X/L	.	8.e/L	.	2ryy	2ryy	2ryy	8.cc#X\L	.
8r	.	.	.	.	.	.	.	.	.	.	.	.
.	.	.	.	32d/LL	.	32f#/LL	.	.	.	.	(32dd\LL	.
.	.	.	.	32e/JJJ	.	32g/JJJ	.	.	.	.	32ee\JJJ)	.
!	!	!	!	!	!	!LO:LB:g=original	!	!	!	!	!	!
8D\	.	.	.	16d/LL	.	(16f#/LL	.	.	.	.	8dd\	.
.	.	.	.	16f#/	.	16a/	.	.	.	.	.	.
8r	.	.	.	16f#/	.	16a/	.	.	.	.	8r	.
.	.	.	.	16d/JJ	.	16f#/JJ)	.	.	.	.	.	.
=61	=61	=61	=61	=61	=61	=61	=61	=61	=61	=61	=61	=61
4A\	.	.	.	(2e/	.	16e/LL	.	2ryy	2ryy	2ryy	8.gg\L	.
.	.	.	.	.	.	16a/	.	.	.	.	.	.
.	.	.	.	.	.	16e/	.	.	.	.	.	.
.	.	.	.	.	.	16a/JJ	.	.	.	.	16ee\Jk	.
.	.	.	.	.	.	.	.	.	.	.	8qqdd/	.
4r	.	.	.	.	.	16e/LL	.	.	.	.	8cc#X\L	.
.	.	.	.	.	.	16a/	.	.	.	.	.	.
.	.	.	.	.	.	16e/	.	.	.	.	16aa\L	.
.	.	.	.	.	.	16a/JJ	.	.	.	.	16gg\JJ	.
=62	=62	=62	=62	=62	=62	=62	=62	=62	=62	=62	=62	=62
.	.	.	.	.	.	.	.	.	.	.	8qqgg/	.
4D\	.	.	.	2f#/)	.	(16d/LL	.	2ryy	2ryy	2ryy	16ff#\LL	.
.	.	.	.	.	.	16f#/	.	.	.	.	32bb\L	.
.	.	.	.	.	.	.	.	.	.	.	32aa\J	.
.	.	.	.	.	.	16a/	.	.	.	.	16aa'\JJ	.
!	!	!	!	!	!	!	!	!	!	!	!LO:TX:a:t=problem:brak wartości 1 szesnastki	!
.	.	.	.	.	.	16f#/JJ)	.	.	.	.	16ryy	.
4r	.	.	.	.	.	16d/LL	.	.	.	.	16r	.
.	.	.	.	.	.	16a/	.	.	.	.	16aa\LL	.
.	.	.	.	.	.	16g/	.	.	.	.	16gg\	.
.	.	.	.	.	.	16f#/JJ	.	.	.	.	16ff#\JJ	.
=63	=63	=63	=63	=63	=63	=63	=63	=63	=63	=63	=63	=63
!	!	!LO:N:vis=00	!	!	!	!	!	!	!	!	!	!
8G\	.	0r	.	8.g/L	.	8.e/L	.	2ryy	2ryy	2ryy	8.ee\L	.
8r	.	.	.	.	.	.	.	.	.	.	.	.
.	.	.	.	16a/Jk	.	16f#/Jk	.	.	.	.	16ff#\Jk	.
8A\	.	.	.	16b/LL	.	16g/LL	.	.	.	.	16gg\LL	.
.	.	.	.	16g/	.	16e/	.	.	.	.	16ee\	.
8r	.	.	.	16f#/	.	16d/	.	.	.	.	16dd\	.
.	.	.	.	16e/JJ	.	16c#X/JJ	.	.	.	.	16cc#X\JJ	.
=64	=64	=64	=64	=64	=64	=64	=64	=64	=64	=64	=64	=64
4r	.	.	.	4.A/	.	(4e/	.	2ryy	2ryy	2ryy	(4cc#X\	.
16r	.	.	.	.	.	8f#/)	.	.	.	.	8dd\)	.
16D\LL	.	.	.	.	.	.	.	.	.	.	.	.
16F#\	.	.	.	8r	.	8r	.	.	.	.	8r	.
16A\JJ	.	.	.	.	.	.	.	.	.	.	.	.
=65	=65	=65	=65	=65	=65	=65	=65	=65	=65	=65	=65	=65
!	!	!	!	!LO:TX:a:t=1	!	!LO:TX:a:t=1	!	!	!	!	!	!
4d\	.	.	.	2r	.	2r	.	2ryy	2ryy	2ryy	16r	.
.	.	.	.	.	.	.	.	.	.	.	16dd\LL	.
.	.	.	.	.	.	.	.	.	.	.	16ff#\	.
.	.	.	.	.	.	.	.	.	.	.	16aa\JJ	.
!	!	!	!	!	!	!	!	!	!	!	!LO:LB:g=original	!
4r	.	.	.	.	.	.	.	.	.	.	16ddd\LL	.
.	.	.	.	.	.	.	.	.	.	.	16cccn\	.
.	.	.	.	.	.	.	.	.	.	.	16bb\	.
.	.	.	.	.	.	.	.	.	.	.	16aa\JJ	.
=66	=66	=66	=66	=66	=66	=66	=66	=66	=66	=66	=66	=66
.	.	.	.	.	.	.	.	.	.	.	8qqaa/	.
4r	.	.	.	8r	.	8r	.	2ryy	2ryy	2ryy	2gg#X\	.
.	.	.	.	(8d/L	.	(8fn/L	.	.	.	.	.	.
4E\	.	.	.	8cn/	.	8e/	.	.	.	.	.	.
.	.	.	.	8B/J)	.	8d/J	.	.	.	.	.	.
!	!	!	!	!LO:LB:g=original	!	!	!	!	!	!	!	!
=67	=67	=67	=67	=67	=67	=67	=67	=67	=67	=67	=67	=67
!	!	!LO:N:vis=00	!	!	!	!	!	!	!	!	!	!
4A\	.	0r	.	8.cn/L	.	8.e/L)	.	2ryy	2ryy	2ryy	8.aa\L	.
!	!	!	!	!	!	!	!	!	!	!	!LO:TX:a:t=t	!
.	.	.	.	16B/Jk	.	16d/Jk	.	.	.	.	16bb\Jk	.
!LO:LB:g=original	!	!	!	!	!	!	!	!	!	!	!	!
16r	.	.	.	8A/	.	8cn/	.	.	.	.	8cccn\	.
16AA/LL	.	.	.	.	.	.	.	.	.	.	.	.
16Cn/	.	.	.	8r	.	8r	.	.	.	.	8r	.
16E/JJ	.	.	.	.	.	.	.	.	.	.	.	.
!	!	!	!	!	!	!LO:LB:g=original	!	!	!	!	!	!
=68	=68	=68	=68	=68	=68	=68	=68	=68	=68	=68	=68	=68
!	!	!	!	!LO:TX:a:t=1	!	!LO:TX:a:t=1	!	!	!	!	!	!
4A\	.	.	.	2r	.	2r	.	2ryy	2ryy	2ryy	16r	.
.	.	.	.	.	.	.	.	.	.	.	16ccn\LL	.
.	.	.	.	.	.	.	.	.	.	.	16ff#X\	.
.	.	.	.	.	.	.	.	.	.	.	16aa\JJ	.
4r	.	.	.	.	.	.	.	.	.	.	16cccn\LL	.
.	.	.	.	.	.	.	.	.	.	.	16bb-X\	.
.	.	.	.	.	.	.	.	.	.	.	16aa\	.
.	.	.	.	.	.	.	.	.	.	.	16gg\JJ	.
=69	=69	=69	=69	=69	=69	=69	=69	=69	=69	=69	=69	=69
4r	.	.	.	8r	.	8r	.	2ryy	2ryy	2ryy	2ff#X\	.
.	.	.	.	8cn/L	.	(8e-X/L	.	.	.	.	.	.
(4D\	.	.	.	8B/	.	8d/	.	.	.	.	.	.
.	.	.	.	8A/J	.	8cn/J)	.	.	.	.	.	.
=70	=70	=70	=70	=70	=70	=70	=70	=70	=70	=70	=70	=70
4G\)	.	.	.	8G/	.	4Bn/	.	2ryy	2ryy	2ryy	8gg\L	.
.	.	.	.	.	.	.	.	.	.	.	8qqff#X/	.
.	.	.	.	8r	.	.	.	.	.	.	8gg\	.
.	.	.	.	.	.	.	.	.	.	.	8qqff#/	.
4r	.	.	.	4r	.	4r	.	.	.	.	8gg\	.
.	.	.	.	.	.	.	.	.	.	.	8qqff#/	.
.	.	.	.	.	.	.	.	.	.	.	8gg\J	.
=71	=71	=71	=71	=71	=71	=71	=71	=71	=71	=71	=71	=71
!	!	!LO:N:vis=00	!	!	!	!	!	!	!	!	!	!
8r	.	0r	.	8r	.	8r	.	2ryy	2ryy	2ryy	2ffn\	.
(8GG/	.	.	.	8Bn/L	.	(8d/L	.	.	.	.	.	.
4G\)	.	.	.	8c/	.	8e/	.	.	.	.	.	.
.	.	.	.	8d/J	.	8fn/J)	.	.	.	.	.	.
!	!	!	!	!	!	!	!	!	!	!	!LO:LB:g=original	!
=72	=72	=72	=72	=72	=72	=72	=72	=72	=72	=72	=72	=72
4.C/	.	.	.	2e/	.	4.e/	.	2ryy	2ryy	2ryy	16ee\LL	.
.	.	.	.	.	.	.	.	.	.	.	16ffni\	.
.	.	.	.	.	.	.	.	.	.	.	16ee\	.
.	.	.	.	.	.	.	.	.	.	.	16dd\JJ	.
.	.	.	.	.	.	.	.	.	.	.	16ccn\LL	.
.	.	.	.	.	.	.	.	.	.	.	16bni\	.
8C#X/	.	.	.	.	.	8g/	.	.	.	.	16a\	.
.	.	.	.	.	.	.	.	.	.	.	16g\JJ	.
=73	=73	=73	=73	=73	=73	=73	=73	=73	=73	=73	=73	=73
(4D\	.	.	.	(4d/	.	(4b/	.	2ryy	2ryy	2ryy	4g/	.
16d\LL)	.	.	.	8d/)	.	8a/)	.	.	.	.	8f#X/	.
16cn\	.	.	.	.	.	.	.	.	.	.	.	.
16B\	.	.	.	8r	.	8r	.	.	.	.	8r	.
16A\JJ	.	.	.	.	.	.	.	.	.	.	.	.
=74	=74	=74	=74	=74	=74	=74	=74	=74	=74	=74	=74	=74
!	!	!	!	!LO:TX:b:t=pizzicato	!	!LO:TX:b:t=pizzicato	!	!	!	!	!	!
4G\	.	.	.	8.B/L	.	8.g/L	.	2ryy	2ryy	2ryy	[<2dd\	.
.	.	.	.	16d/Jk	.	16a/Jk	.	.	.	.	.	.
4r	.	.	.	8g/L	.	8bn/L	.	.	.	.	.	.
.	.	.	.	8g/J	.	8b/J	.	.	.	.	.	.
=75	=75	=75	=75	=75	=75	=75	=75	=75	=75	=75	=75	=75
!	!	!LO:N:vis=00	!	!	!	!	!	!	!	!	!	!
4D\	.	0r	.	8.f#X/L	.	8.a/L	.	2ryy	2ryy	2ryy	2dd\_<	.
.	.	.	.	16g/Jk	.	16b/Jk	.	.	.	.	.	.
4r	.	.	.	8a/L	.	8ccn\L	.	.	.	.	.	.
.	.	.	.	8a/J	.	8cc\J	.	.	.	.	.	.
!	!	!	!	!LO:LB:g=original	!	!LO:LB:g=original	!	!	!	!	!	!
=76	=76	=76	=76	=76	=76	=76	=76	=76	=76	=76	=76	=76
4G\	.	.	.	8.g/L	.	8.b\L	.	2ryy	2ryy	2ryy	2dd\_<	.
.	.	.	.	16a/Jk	.	16cc\Jk	.	.	.	.	.	.
16r	.	.	.	8bn/	.	8dd\	.	.	.	.	.	.
16GG/LL	.	.	.	.	.	.	.	.	.	.	.	.
16BB/	.	.	.	8r	.	8r	.	.	.	.	.	.
16D/JJ	.	.	.	.	.	.	.	.	.	.	.	.
=77	=77	=77	=77	=77	=77	=77	=77	=77	=77	=77	=77	=77
4G\	.	.	.	8.g/L	.	8.b\L	.	2ryy	2ryy	2ryy	4..dd\]	.
.	.	.	.	16a/Jk	.	16cc\Jk	.	.	.	.	.	.
8r	.	.	.	8b/	.	8dd\	.	.	.	.	.	.
8GG/	.	.	.	8r	.	8r	.	.	.	.	.	.
.	.	.	.	.	.	.	.	.	.	.	16dd#X\	.
=78	=78	=78	=78	=78	=78	=78	=78	=78	=78	=78	=78	=78
8C/	.	.	.	8g/	.	8ee\	.	2ryy	2ryy	2ryy	24ee\LL	.
.	.	.	.	.	.	.	.	.	.	.	24ccn\	.
.	.	.	.	.	.	.	.	.	.	.	24dd\JJ	.
8r	.	.	.	8r	.	8r	.	.	.	.	24ee\LL	.
.	.	.	.	.	.	.	.	.	.	.	24ff#Xi\	.
.	.	.	.	.	.	.	.	.	.	.	24gg\JJ	.
8C/	.	.	.	8a/	.	8ff#X\	.	.	.	.	24ff#X\LL	.
.	.	.	.	.	.	.	.	.	.	.	24dd\	.
.	.	.	.	.	.	.	.	.	.	.	24ee\JJ	.
8r	.	.	.	8r	.	8r	.	.	.	.	24ff#\LL	.
.	.	.	.	.	.	.	.	.	.	.	24gg\	.
.	.	.	.	.	.	.	.	.	.	.	24aa\JJ	.
!	!	!	!	!	!	!	!	!	!	!	!LO:LB:g=original	!
=79	=79	=79	=79	=79	=79	=79	=79	=79	=79	=79	=79	=79
!	!	!LO:N:vis=0	!	!	!	!	!	!	!	!	!	!
8BB/	.	1r	.	8dd\	.	8gg\	.	2ryy	2ryy	2ryy	24gg\LL	.
.	.	.	.	.	.	.	.	.	.	.	24dd\	.
.	.	.	.	.	.	.	.	.	.	.	24ff#X\JJ	.
8r	.	.	.	8r	.	8r	.	.	.	.	24gg\LL	.
.	.	.	.	.	.	.	.	.	.	.	24aa\	.
.	.	.	.	.	.	.	.	.	.	.	24bbn\JJ	.
8F#X\	.	.	.	8a/	.	8dd\	.	.	.	.	24aa\LL	.
.	.	.	.	.	.	.	.	.	.	.	24ff#X\	.
.	.	.	.	.	.	.	.	.	.	.	24gg\JJ	.
8r	.	.	.	8r	.	8r	.	.	.	.	24aa\LL	.
.	.	.	.	.	.	.	.	.	.	.	24bb\	.
.	.	.	.	.	.	.	.	.	.	.	24cccn\JJ	.
=80	=80	=80	=80	=80	=80	=80	=80	=80	=80	=80	=80	=80
!	!	!	!	!LO:TX:a:t=1	!	!LO:TX:a:t=1	!	!	!	!	!	!
4G\	.	.	.	2r	.	2r	.	2ryy	2ryy	2ryy	16bb\LL	.
.	.	.	.	.	.	.	.	.	.	.	(16aa\	.
.	.	.	.	.	.	.	.	.	.	.	16gg\	.
.	.	.	.	.	.	.	.	.	.	.	16ff#\JJ	.
4r	.	.	.	.	.	.	.	.	.	.	16gg\LL	.
.	.	.	.	.	.	.	.	.	.	.	16ff#\	.
.	.	.	.	.	.	.	.	.	.	.	16ee\)	.
.	.	.	.	.	.	.	.	.	.	.	16dd#X\JJ	.
!LO:LB:g=original	!	!LO:LB:g=original	!	!	!	!	!	!	!	!	!	!
=81	=81	=81	=81	=81	=81	=81	=81	=81	=81	=81	=81	=81
!	!	!	!	!LO:TX:b:t=Colarco	!	!LO:TX:b:t=Colarco	!	!	!	!	!	!
8r	.	8r	.	8cn/	.	8e/	.	2ryy	2ryy	2ryy	8ee\	.
!	!	!	!LO:DY:t=p	!	!	!	!	!	!	!	!	!
(8C\L	.	4G/	p	4c/	.	4e/	.	.	.	.	4ee\	.
8E\	.	.	.	.	.	.	.	.	.	.	.	.
8F#X\J)	.	8A/	.	16B/LL	.	16d/LL	.	.	.	.	16ddn\LL	.
.	.	.	.	16A/JJ	.	16c/JJ	.	.	.	.	16cc\JJ	.
=82	=82	=82	=82	=82	=82	=82	=82	=82	=82	=82	=82	=82
!LO:TX:t=P:problem:mixed beam	!	!	!	!	!	!	!	!	!	!	!	!
8G\L	.	8G/L	.	8G/	.	8B/	.	2ryy	2ryy	2ryy	24b/LL	.
.	.	.	.	.	.	.	.	.	.	.	24dd/	.
.	.	.	.	.	.	.	.	.	.	.	24cc/JJ	.
(8BB/	.	8B/	.	8r	.	8r	.	.	.	.	24b/LL	.
.	.	.	.	.	.	.	.	.	.	.	24a/	.
.	.	.	.	.	.	.	.	.	.	.	24g/JJ	.
!	!	!	!	!	!	!	!	!	!	!	!LO:TX:a:t=t	!
8C/	.	8c/	.	4r	.	4r	.	.	.	.	4a/	.
8D/J)	.	8d/J	.	.	.	.	.	.	.	.	.	.
!	!	!	!	!	!	!LO:LB:g=original	!	!	!	!	!	!
=83	=83	=83	=83	=83	=83	=83	=83	=83	=83	=83	=83	=83
*	*	*	*	*	*	*	*	*	*	*	*tuplet	*
!	!	!	!	!	!	!	!	!	!	!	!LO:TUP:b	!
8G\	.	8r	.	8r	.	8r	.	2ryy	2ryy	2ryy	(24b/LL	.
.	.	.	.	.	.	.	.	.	.	.	24a/	.
.	.	.	.	.	.	.	.	.	.	.	24g/JJ)	.
8r	.	8d\	.	8g/	.	8b\	.	.	.	.	16g'/LL	.
.	.	.	.	.	.	.	.	.	.	.	16g'/JJ	.
!	!	!	!	!	!	!	!	!	!	!	!LO:LB:g=original	!
!	!	!	!	!	!	!	!	!	!	!	!LO:TUP:b	!
8D\	.	8r	.	8r	.	8r	.	.	.	.	(24a/LL	.
.	.	.	.	.	.	.	.	.	.	.	24b/	.
.	.	.	.	.	.	.	.	.	.	.	24cc/JJ)	.
8r	.	8d\	.	8a/	.	8cc\	.	.	.	.	16cc'/LL	.
.	.	.	.	.	.	.	.	.	.	.	16cc'/JJ	.
!	!	!	!	!LO:LB:g=original	!	!	!	!	!	!	!	!
=84	=84	=84	=84	=84	=84	=84	=84	=84	=84	=84	=84	=84
!	!	!	!	!	!	!	!	!	!	!	!LO:TUP:b	!
8G\	.	8r	.	8r	.	8r	.	2ryy	2ryy	2ryy	(24b/LL	.
.	.	.	.	.	.	.	.	.	.	.	24a/	.
.	.	.	.	.	.	.	.	.	.	.	24g/JJ)	.
8r	.	8d\	.	8g/	.	8b\	.	.	.	.	16g'/LL	.
.	.	.	.	.	.	.	.	.	.	.	16g'/JJ	.
!	!	!	!	!	!	!	!	!	!	!	!LO:TUP:b	!
8D\	.	8r	.	8r	.	8r	.	.	.	.	(24a/LL	.
.	.	.	.	.	.	.	.	.	.	.	24b/	.
.	.	.	.	.	.	.	.	.	.	.	24cc/JJ)	.
8r	.	8d\	.	8a/	.	8cc\	.	.	.	.	16cc'/LL	.
.	.	.	.	.	.	.	.	.	.	.	16cc'/JJ	.
=85	=85	=85	=85	=85	=85	=85	=85	=85	=85	=85	=85	=85
4G\	.	8d\	.	4g/	.	8b\	.	2ryy	2ryy	2ryy	16b\LL	.
.	.	.	.	.	.	.	.	.	.	.	(16gg\	.
.	.	8r	.	.	.	8r	.	.	.	.	16ff#\	.
.	.	.	.	.	.	.	.	.	.	.	16ffn\JJ	.
4r	.	4r	.	4r	.	4r	.	.	.	.	16ee\LL	.
.	.	.	.	.	.	.	.	.	.	.	16ee-X\	.
.	.	.	.	.	.	.	.	.	.	.	16dd\	.
.	.	.	.	.	.	.	.	.	.	.	16cc#X\JJ)	.
=86	=86	=86	=86	=86	=86	=86	=86	=86	=86	=86	=86	=86
!LO:TX:t=P:problem:mixed beam	!	!LO:TX:a:t=2	!	!	!	!	!	!	!	!	!LO:NO:vis=32.	!
!	!	!LO:N:vis=0	!	!	!	!	!	!	!	!	!	!
8D\L	.	1r	.	8g/L	.	8b`\L	.	2ryy	2ryy	2ryy	16.dd\LL	.
.	.	.	.	.	.	.	.	.	.	.	(64ee\LL	.
.	.	.	.	.	.	.	.	.	.	.	64dd\J)	.
8D\	.	.	.	8g/	.	8b`\	.	.	.	.	32ccn\	.
.	.	.	.	.	.	.	.	.	.	.	32b\	.
.	.	.	.	.	.	.	.	.	.	.	32a\	.
.	.	.	.	.	.	.	.	.	.	.	32g\JJJ	.
!	!	!	!	!	!	!	!	!	!	!	!LO:TX:a:t=t	!
8DD/	.	.	.	8g/	.	8a`\	.	.	.	.	4a/	.
8DD/J	.	.	.	8f#X/J	.	8a`\J	.	.	.	.	.	.
=87	=87	=87	=87	=87	=87	=87	=87	=87	=87	=87	=87	=87
4GG/	.	.	.	4g/	.	16g/KL	<	2ryy	2ryy	2ryy	4g/	.
.	.	.	.	.	.	8g/	.	.	.	.	.	.
.	.	.	.	.	.	8g/	.	.	.	.	.	.
4r	.	.	.	4r	.	.	.	.	.	.	4r	.
.	.	.	.	.	.	8g/	.	.	.	.	.	.
.	.	.	.	.	.	16g/Jk	.	.	.	.	.	.
=88	=88	=88	=88	=88	=88	=88	=88	=88	=88	=88	=88	=88
!LO:TX:t=P:problem:mixed beam	!	!	!	!LO:TX:b:t=Tutti	!	!	!	!	!	!	!LO:TX:a:t=7	!
!	!	!	!	!	!	!	!	!	!	!	!LO:N:vis=00	!
8GG/L	f	16d\KL	f	16dd\KL	.	16ffn\KL	f	2ryy	2ryy	2ryy	0r	.
.	.	8g\	.	8dd\	.	8ff\	.	.	.	.	.	.
8G\	.	.	.	.	.	.	.	.	.	.	.	.
.	.	8g\	.	8dd\	.	8ff\	.	.	.	.	.	.
8G\	.	.	.	.	.	.	.	.	.	.	.	.
.	.	8g\	.	8dd\	f	8ff\	.	.	.	.	.	.
8G\J	.	.	.	.	.	.	.	.	.	.	.	.
.	.	16g\Jk	.	16dd\Jk	.	16ff\Jk	.	.	.	.	.	.
=89	=89	=89	=89	=89	=89	=89	=89	=89	=89	=89	=89	=89
!LO:TX:t=P:problem:mixed beam	!	!	!	!	!	!	!	!	!	!	!	!
8C/L	.	16g\KL	.	16ccn\KL	.	16ee\KL	.	2ryy	2ryy	2ryy	.	.
.	.	8g\	.	8cc\	.	8ee\	.	.	.	.	.	.
8c\	.	.	.	.	.	.	.	.	.	.	.	.
.	.	8g\	.	8cc\	.	8ee\	.	.	.	.	.	.
8C/	.	.	.	.	.	.	.	.	.	.	.	.
.	.	8g\	.	8cc\	.	8ee\	.	.	.	.	.	.
8c\J	.	.	.	.	.	.	.	.	.	.	.	.
.	.	16g\Jk	.	16cc\Jk	.	16ee\Jk	.	.	.	.	.	.
!	!	!	!	!	!	!LO:PB:g=original	!	!	!	!	!	!
=90	=90	=90	=90	=90	=90	=90	=90	=90	=90	=90	=90	=90
*tremolo	*	*tremolo	*	*	*	*	*	*	*	*	*	*
!LO:TX:a:t=fis	!	!	!	!	!	!	!	!	!	!	!	!
8F#X\L	.	8d\L	.	16aa\KL	.	16cccn\KL	.	2ryy	2ryy	2ryy	.	.
.	.	.	.	8aa\	.	8ccc\	.	.	.	.	.	.
8F#\	.	8d\	.	.	.	.	.	.	.	.	.	.
.	.	.	.	8aa\	.	8ccc\	.	.	.	.	.	.
8F#\	.	8d\	.	.	.	.	.	.	.	.	.	.
.	.	.	.	8aa\	.	8ccc\	.	.	.	.	.	.
8F#\J	.	8d\J	.	.	.	.	.	.	.	.	.	.
.	.	.	.	16aa\Jk	.	16ccc\Jk	.	.	.	.	.	.
*Xtremolo	*	*Xtremolo	*	*	*	*	*	*	*	*	*	*
=91	=91	=91	=91	=91	=91	=91	=91	=91	=91	=91	=91	=91
8G\	.	8d\	.	16bb\LL	.	(16bb\LL	.	2ryy	2ryy	2ryy	.	.
.	.	.	.	16gg\	.	16gg\)	.	.	.	.	.	.
8r	.	8r	.	16ff#\	.	16ff#`\	.	.	.	.	.	.
.	.	.	.	16gg\JJ	.	16gg`\JJ	.	.	.	.	.	.
!	!	!	!	!LO:LB:g=original	!	!	!	!	!	!	!	!
8C/	.	8e\	.	16gg\LL	.	(16gg\LL	.	.	.	.	.	.
.	.	.	.	16ee\	.	16ee\)	.	.	.	.	.	.
8r	.	8r	.	16dd#X\	.	16dd#X`\	.	.	.	.	.	.
.	.	.	.	16ee\JJ	.	16ee`\JJ	.	.	.	.	.	.
=92	=92	=92	=92	=92	=92	=92	=92	=92	=92	=92	=92	=92
!LO:TX:t=P:problem:mixed beam	!	!	!	!	!	!	!	!	!	!	!LO:N:vis=0	!
8D\L	.	8d\L	.	8.ddn\L	.	8.ddn\L	.	2ryy	2ryy	2ryy	1r	.
8D\	.	8d\	.	.	.	.	.	.	.	.	.	.
!	!	!	!	!LO:N:vis=16	!	!	!	!	!	!	!	!
.	.	.	.	32b\LL	.	(32b\LL	.	.	.	.	.	.
!	!	!	!	!LO:N:vis=16	!	!	!	!	!	!	!	!
.	.	.	.	32g\JJJ	.	32g\JJJ)	.	.	.	.	.	.
!	!	!	!	!	!	!LO:TX:a:t=problem:niejednoznaczne oznaczenie \ntryl/ ozdobnik	!	!	!	!	!	!
8DD/	.	8d\	.	(8g/L	.	4a/	.	.	.	.	.	.
8DD/J	.	8d\J	.	8f#X/J)	.	.	.	.	.	.	.	.
=93	=93	=93	=93	=93	=93	=93	=93	=93	=93	=93	=93	=93
4GG/	.	4d\	.	8g/	.	8g/	.	2ryy	2ryy	2ryy	.	.
!	!	!	!	!	!LO:DY:t=p:	!	!LO:DY:t=p:	!	!	!	!	!
.	.	.	.	4B/	p	4d/	p	.	.	.	.	.
8r	.	8r	.	.	.	.	.	.	.	.	.	.
8D\	.	8d\	.	8A/	.	(8c/	.	.	.	.	.	.
=94	=94	=94	=94	=94	=94	=94	=94	=94	=94	=94	=94	=94
!	!	!	!	!	!	!	!	!	!	!	!LO:TX:a:t=Volti:Sub	!
4GG/	.	(4d\	.	(4A/	.	4c/	.	2ryy	2ryy	2ryy	2r	.
8G\	.	8d\)	.	8G/)	.	8B/)	.	.	.	.	.	.
!	!	!LO:TX:b:t=Vol Sub	!	!	!	!	!	!	!	!	!	!
8r	.	8r	.	8r	.	8r	.	.	.	.	.	.
==	==	==	==	==	==	==	==	==	==	==	==	==
*-	*-	*-	*-	*-	*-	*-	*-	*-	*-	*-	*-	*-
!!!system-decoration: [(g1)][(g2)][(g3)]
!!!RDF**kern: i = editorial accidental
!!!RDF**kern: >= above
!!!RDF**kern: <= below
!!!RDF**dynam: f=for
!!!RDF**dynam: p=pia
!!!RDF**dynam: cresc. = cres.
!!!AIN: 3 empty 2 oboe 1 viola 2 violn
!!!ENC: Anna Matuszewska
!!!END: 2020-07-12
